X: 445
T: A Tune For Paddy: A Pint Of Guiness And One For The Goat
R: jig
M: 6/8
K: Eminor
edB AGF|GEE ~E3|FED EFA|G ~F2 DEF|
~E3 ~F3|GAB dcd|ABA AGF|GEE ~E3:|
edB edB|~G3 EFG|ded dAG|~F3 DEF|
~E3 ~F3|GAB def|edB AGF|GEE ~E3:|

